source/Icon/api.svg

<svg width="32" height="32" viewBox="0 0 48 48" fill="none" xmlns="http://www.w3.org/2000/svg">
    <path d="M37 22.0001L34 25.0001L23 14.0001L26 11.0001C27.5 9.50002 33 7.00005 37 11.0001C41 15.0001 38.5 20.5 37 22.0001Z" fill="#2F88FF" stroke="#000000" stroke-width="4" stroke-linecap="round" stroke-linejoin="round"/>
    <path d="M42 6L37 11" stroke="#000000" stroke-width="4" stroke-linecap="round" stroke-linejoin="round"/>
    <path d="M11 25.9999L14 22.9999L25 33.9999L22 36.9999C20.5 38.5 15 41 11 36.9999C7 32.9999 9.5 27.5 11 25.9999Z" fill="#2F88FF" stroke="#000000" stroke-width="4" stroke-linecap="round" stroke-linejoin="round"/>
    <path d="M23 32L27 28" stroke="#000000" stroke-width="4" stroke-linecap="round" stroke-linejoin="round"/>
    <path d="M6 42L11 37" stroke="#000000" stroke-width="4" stroke-linecap="round" stroke-linejoin="round"/>
    <path d="M16 25L20 21" stroke="#000000" stroke-width="4" stroke-linecap="round" stroke-linejoin="round"/>
</svg>

<svg width="48" height="48" viewBox="0 0 48 48" fill="none" xmlns="http://www.w3.org/2000/svg">
    <path stroke-linejoin="round" stroke-linecap="round" stroke-width="4" stroke="#333"
        d="m37 22-3 3-11-11 3-3c1.5-1.5 7-4 11 0s1.5 9.5 0 11ZM42 6l-5 5M11 26l3-3 11 11-3 3c-1.5 1.5-7 4-11 0s-1.5-9.5 0-11ZM23 32l4-4M6 42l5-5M16 25l4-4" />
</svg>
